;FLAVOR:RepRap
;TIME:6666
;Filament used: 0m
;Layer height: 0.2

;Generated with Cura_SteamEngine master
M190 S50
M104 S200
M109 S200
G28 ;Home
G1 Z15.0 F6000 ;Move the platform down 15mm
;Prime the extruder
G92 E0
G1 F200 E3
G92 E0


;LAYER_COUNT:500
;LAYER:0
M107
G0 F3600 X137.278 Y105.116 Z0.3
G0 X137.384 Y104.99
;TYPE:SKIRT
G1 F1800 X139.063 Y103.226 E0.1458
G1 X139.202 Y103.099 E0.15707
G1 X140.559 Y102.034 E0.26034
G1 X140.662 Y101.962 E0.26787
G1 X141.769 Y101.254 E0.34654
G1 X141.879 Y101.19 E0.35416
G1 X143.282 Y100.476 E0.4484
G1 X143.431 Y100.412 E0.45811
G1 X145.367 Y99.714 E0.58132
G1 X145.491 Y99.676 E0.58908
G1 X146.696 Y99.373 E0.66347
G1 X146.817 Y99.349 E0.67086
G1 X148.25 Y99.13 E0.75764
G1 X148.379 Y99.117 E0.7654
G1 X149.935 Y99.037 E0.85868
G1 X150.069 Y99.037 E0.8667
G1 X151.611 Y99.117 E0.95915
G1 X151.787 Y99.138 E0.96976
G1 X154.21 Y99.599 E1.11742
G1 X154.408 Y99.653 E1.12971
G1 X156.752 Y100.498 E1.27888
G1 X156.908 Y100.566 E1.28907
G1 X158.148 Y101.207 E1.37264
G1 X158.293 Y101.295 E1.38279
G1 X160.252 Y102.658 E1.52567
G1 X160.384 Y102.763 E1.53576
G1 X161.594 Y103.863 E1.63366
G1 X161.679 Y103.947 E1.64082
G1 X162.487 Y104.829 E1.71243
G1 X162.555 Y104.91 E1.71876
G1 X163.36 Y105.948 E1.7974
G1 X163.434 Y106.055 E1.80519
G1 X164.269 Y107.387 E1.89931
G1 X164.329 Y107.493 E1.9066
G1 X164.944 Y108.716 E1.98856
G1 X165.011 Y108.874 E1.99883
G1 X165.792 Y111.128 E2.14165
G1 X165.834 Y111.275 E2.1508
G1 X166.116 Y112.558 E2.22944
G1 X166.136 Y112.674 E2.23649
G1 X166.316 Y114.099 E2.32248
G1 X166.326 Y114.264 E2.33238
G1 X166.323 Y116.41 E2.46085
G1 X166.283 Y116.729 E2.4801
G1 X166.165 Y117.029 E2.4994
G1 X165.923 Y117.346 E2.52328
G1 X163.986 Y119.203 E2.68393
G1 X163.728 Y119.396 E2.70322
G1 X163.43 Y119.519 E2.72252
G1 X163.085 Y119.565 E2.74335
G1 X136.883 Y119.544 E4.31202
G1 X136.564 Y119.504 E4.33127
G1 X136.264 Y119.387 E4.35055
G1 X135.982 Y119.18 E4.37149
G1 X134.073 Y117.342 E4.53014
G1 X133.871 Y117.092 E4.54938
G1 X133.736 Y116.8 E4.56864
G1 X133.677 Y116.472 E4.5886
G1 X133.626 Y115.475 E4.64836
G1 X133.626 Y115.341 E4.65638
G1 X133.708 Y113.766 E4.7508
G1 X133.729 Y113.589 E4.76148
G1 X134.188 Y111.198 E4.90723
G1 X134.242 Y111.003 E4.91935
G1 X135.081 Y108.671 E5.06772
G1 X135.17 Y108.475 E5.08061
G1 X136.288 Y106.48 E5.21752
G1 X136.374 Y106.346 E5.22705
G1 X137.278 Y105.116 E5.31844
G1 X137.384 Y104.99 E5.3283
G0 F3600 X137.674 Y105.266
G1 F1800 X139.353 Y103.502 E5.4741
G1 X139.449 Y103.414 E5.48189
G1 X140.806 Y102.349 E5.58517
G1 X140.877 Y102.299 E5.59037
G1 X141.984 Y101.591 E5.66904
G1 X142.061 Y101.547 E5.67435
G1 X143.464 Y100.833 E5.76859
G1 X143.567 Y100.788 E5.77532
G1 X145.503 Y100.09 E5.89853
G1 X145.589 Y100.064 E5.90391
G1 X146.794 Y99.761 E5.97829
G1 X146.877 Y99.744 E5.98337
G1 X148.31 Y99.525 E6.07015
G1 X148.4 Y99.516 E6.07557
G1 X149.956 Y99.436 E6.16885
G1 X150.049 Y99.436 E6.17441
G1 X151.591 Y99.516 E6.26686
G1 X151.712 Y99.531 E6.27416
G1 X154.135 Y99.992 E6.42182
G1 X154.272 Y100.029 E6.43031
G1 X156.616 Y100.874 E6.57949
G1 X156.724 Y100.922 E6.58656
G1 X157.964 Y101.563 E6.67013
G1 X158.065 Y101.623 E6.67716
G1 X160.024 Y102.986 E6.82004
G1 X160.115 Y103.059 E6.82702
G1 X161.325 Y104.159 E6.92492
G1 X161.384 Y104.217 E6.92988
G1 X162.192 Y105.099 E7.00149
G1 X162.239 Y105.155 E7.00587
G1 X163.044 Y106.193 E7.08451
G1 X163.096 Y106.267 E7.08992
G1 X163.931 Y107.599 E7.18404
G1 X163.972 Y107.673 E7.1891
G1 X164.587 Y108.896 E7.27106
G1 X164.633 Y109.005 E7.27814
G1 X165.414 Y111.259 E7.42096
G1 X165.443 Y111.361 E7.42731
G1 X165.725 Y112.644 E7.50595
G1 X165.739 Y112.724 E7.51081
G1 X165.919 Y114.149 E7.5968
G1 X165.926 Y114.263 E7.60364
G1 X165.923 Y116.409 E7.73212
G1 X165.883 Y116.674 E7.74816
G1 X165.767 Y116.915 E7.76417
G1 X165.646 Y117.058 E7.77539
G1 X163.709 Y118.915 E7.93604
G1 X163.49 Y119.069 E7.95207
G1 X163.236 Y119.152 E7.96806
G1 X163.085 Y119.165 E7.97714
G1 X136.883 Y119.144 E9.54581
G1 X136.619 Y119.104 E9.56179
G1 X136.378 Y118.988 E9.5778
G1 X136.26 Y118.892 E9.58691
G1 X134.351 Y117.054 E9.74556
G1 X134.188 Y116.842 E9.76157
G1 X134.094 Y116.591 E9.77762
G1 X134.076 Y116.452 E9.78601
G1 X134.025 Y115.455 E9.84578
G1 X134.025 Y115.362 E9.85134
G1 X134.107 Y113.787 E9.94576
G1 X134.122 Y113.664 E9.95318
G1 X134.581 Y111.273 E10.09894
G1 X134.618 Y111.138 E10.10732
G1 X135.457 Y108.806 E10.25569
G1 X135.519 Y108.671 E10.26459
G1 X136.637 Y106.676 E10.4015
G1 X136.697 Y106.583 E10.40813
G1 X137.601 Y105.353 E10.49951
G1 X137.674 Y105.266 E10.50631
G0 F3600 X137.923 Y105.59
G1 F1800 X137.964 Y105.541 E10.51014
G1 X139.643 Y103.777 E10.65594
G1 X139.696 Y103.729 E10.66022
G1 X141.053 Y102.664 E10.76349
G1 X141.093 Y102.636 E10.76641
G1 X142.2 Y101.928 E10.84508
G1 X142.242 Y101.903 E10.84801
G1 X143.645 Y101.189 E10.94226
G1 X143.702 Y101.165 E10.94596
G1 X145.638 Y100.467 E11.06917
G1 X145.686 Y100.452 E11.07218
G1 X146.891 Y100.149 E11.14656
G1 X146.937 Y100.14 E11.14937
G1 X148.37 Y99.921 E11.23616
G1 X148.42 Y99.916 E11.23917
G1 X149.976 Y99.836 E11.33244
G1 X150.028 Y99.836 E11.33556
G1 X151.57 Y99.916 E11.428
G1 X151.637 Y99.924 E11.43204
G1 X154.06 Y100.385 E11.5797
G1 X154.137 Y100.406 E11.58448
G1 X156.481 Y101.251 E11.73365
G1 X156.541 Y101.277 E11.73757
G1 X157.781 Y101.918 E11.82113
G1 X157.837 Y101.952 E11.82506
G1 X159.796 Y103.315 E11.96793
G1 X159.846 Y103.355 E11.97177
G1 X161.056 Y104.455 E12.06967
G1 X161.089 Y104.487 E12.07242
G1 X161.897 Y105.369 E12.14403
G1 X161.923 Y105.401 E12.1465
G1 X162.728 Y106.439 E12.22514
G1 X162.757 Y106.479 E12.2281
G1 X163.592 Y107.811 E12.32222
G1 X163.615 Y107.852 E12.32503
G1 X164.23 Y109.075 E12.40699
G1 X164.255 Y109.136 E12.41093
G1 X165.036 Y111.39 E12.55375
G1 X165.052 Y111.447 E12.55729
G1 X165.334 Y112.73 E12.63594
G1 X165.342 Y112.774 E12.63861
G1 X165.522 Y114.199 E12.7246
G1 X165.526 Y114.263 E12.72844
G1 X165.523 Y116.409 E12.85692
G1 X165.483 Y116.604 E12.86884
G1 X165.369 Y116.769 E12.88084
G1 X163.432 Y118.626 E13.04149
G1 X163.264 Y118.732 E13.05338
G1 X163.086 Y118.765 E13.06422
G1 X136.884 Y118.744 E14.63289
G1 X136.689 Y118.704 E14.64481
G1 X136.537 Y118.604 E14.6557
G1 X134.628 Y116.766 E14.81435
G1 X134.515 Y116.602 E14.82627
G1 X134.476 Y116.432 E14.83672
G1 X134.425 Y115.435 E14.89648
G1 X134.425 Y115.383 E14.8996
G1 X134.507 Y113.808 E14.99402
G1 X134.515 Y113.74 E14.99812
G1 X134.974 Y111.349 E15.14387
G1 X134.995 Y111.274 E15.14854
G1 X135.834 Y108.942 E15.29691
G1 X135.868 Y108.867 E15.30184
G1 X136.986 Y106.872 E15.43875
G1 X137.019 Y106.82 E15.44244
G1 X137.923 Y105.59 E15.53383
G1 F600 E13.03383
G0 F3600 X137.794 Y105.487
G0 X137.239 Y106.179
G0 X136.343 Y107.563
G0 X135.603 Y109.02
G0 X135.01 Y110.577
G0 X134.587 Y112.164
G0 X134.334 Y113.791
G0 X134.251 Y115.433
G0 X134.313 Y116.598
G0 X134.813 Y117.073
G0 X137.102 Y117.076
G0 X137.102 Y116.884
;TYPE:SUPPORT
G1 F1500 E15.53383
G1 F1800 X141.897 Y116.884 E15.8209
G1 X141.897 Y118.074 E15.89214
G1 X137.101 Y118.074 E16.17927
G1 X137.102 Y116.884 E16.25051
G1 F600 E13.75051
G0 F3600 X137.102 Y117.076
G0 X138.32 Y117.044
G1 F1500 E16.25051
G1 F1800 X138.32 Y117.914 E16.3026
G0 F3600 X140.98 Y117.914
G1 F1800 X140.98 Y117.044 E16.35468
G1 F600 E13.85468
G0 F3600 X147.602 Y117.076
G0 X147.602 Y116.884
G1 F1500 E16.35468
G1 F1800 X152.397 Y116.884 E16.64175
G1 X152.397 Y118.074 E16.71299
G1 X147.601 Y118.074 E17.00012
G1 X147.602 Y116.884 E17.07136
G1 F600 E14.57136
G0 F3600 X147.602 Y117.076
G0 X148.96 Y117.044
G1 F1500 E17.07136
G1 F1800 X148.96 Y117.914 E17.12345
G0 F3600 X151.62 Y117.914
G1 F1800 X151.62 Y117.044 E17.17554
G1 F600 E14.67554
G0 F3600 X158.102 Y117.076
G0 X158.102 Y116.884
G1 F1500 E17.17554
G1 F1800 X162.897 Y116.884 E17.4626
G1 X162.897 Y118.074 E17.53385
G1 X158.101 Y118.074 E17.82098
G1 X158.102 Y116.884 E17.89222
G1 F600 E15.39222
G0 F3600 X158.102 Y117.076
G0 X159.6 Y117.044
G1 F1500 E17.89222
G1 F1800 X159.6 Y117.914 E17.9443
G0 F3600 X162.26 Y117.914
G1 F1800 X162.26 Y117.044 E17.99639
G1 F600 E15.49639
G0 F3600 X162.26 Y116.191
G0 X164.785 Y115.411
G0 X164.885 Y115.411
;TYPE:WALL-OUTER
G1 F1500 E17.99639
G1 F1800 X164.844 Y116.211 E18.04435
G1 X135.156 Y116.211 E19.82171
G1 X135.115 Y115.411 E19.86967
G1 X135.195 Y113.856 E19.96289
G1 X135.439 Y112.311 E20.05653
G1 X135.841 Y110.815 E20.14927
G1 X136.402 Y109.351 E20.24314
G1 X137.106 Y107.971 E20.33588
G1 X137.959 Y106.657 E20.42967
G1 X138.935 Y105.452 E20.52251
G1 X140.034 Y104.35 E20.61568
G1 X141.252 Y103.366 E20.70943
G1 X142.56 Y102.517 E20.80278
G1 X143.94 Y101.813 E20.89553
G1 X145.404 Y101.252 E20.98939
G1 X146.9 Y100.85 E21.08213
G1 X148.445 Y100.606 E21.17578
G1 X150 Y100.526 E21.26899
G1 X151.554 Y100.606 E21.36215
G1 X153.099 Y100.85 E21.4558
G1 X154.595 Y101.252 E21.54854
G1 X156.059 Y101.813 E21.6424
G1 X157.44 Y102.517 E21.7352
G1 X158.753 Y103.37 E21.82894
G1 X159.964 Y104.35 E21.9222
G1 X161.06 Y105.447 E22.01504
G1 X162.04 Y106.657 E22.10826
G1 X162.893 Y107.971 E22.20205
G1 X163.597 Y109.351 E22.2948
G1 X164.158 Y110.815 E22.38866
G1 X164.56 Y112.311 E22.4814
G1 X164.804 Y113.856 E22.57504
G1 X164.885 Y115.411 E22.66826
G0 F3600 X164.875 Y115.61
G0 X164.7 Y115.485
;TYPE:SKIN
G1 F1800 X149.925 Y100.711 E23.91917
G1 X149.897 Y100.683
G0 F3600 X149.387 Y100.738
G1 F1800 X164.673 Y116.024 E25.21338
G1 X164.701 Y116.052
G0 F3600 X164.113 Y116.03
G1 F1800 X148.849 Y100.766 E26.50573
G1 X148.821 Y100.738
G0 F3600 X148.325 Y100.807
G1 F1800 X163.548 Y116.03 E27.79461
G1 X163.576 Y116.058
G0 F3600 X162.982 Y116.03
G1 F1800 X147.836 Y100.885 E29.07692
G1 X147.808 Y100.857
G0 F3600 X147.348 Y100.962
G1 F1800 X162.416 Y116.03 E30.35268
G1 X162.444 Y116.058
G0 F3600 X161.851 Y116.03
G1 F1800 X146.866 Y101.045 E31.62141
G1 X146.838 Y101.017
G0 F3600 X146.419 Y101.165
G1 F1800 X161.285 Y116.03 E32.88002
G1 X161.313 Y116.058
G0 F3600 X160.719 Y116.03
G1 F1800 X145.974 Y101.285 E34.12842
G1 X145.946 Y101.257
G0 F3600 X145.528 Y101.404
G1 F1800 X160.154 Y116.03 E35.36675
G1 X160.182 Y116.058
G0 F3600 X159.588 Y116.03
G1 F1800 X145.114 Y101.556 E36.59222
G1 X145.086 Y101.528
G0 F3600 X144.705 Y101.713
G1 F1800 X159.022 Y116.03 E37.80439
G1 X159.05 Y116.058
G0 F3600 X158.456 Y116.03
G1 F1800 X144.296 Y101.87 E39.00326
G1 X144.268 Y101.842
G0 F3600 X143.897 Y102.036
G1 F1800 X157.891 Y116.03 E40.18809
G1 X157.919 Y116.058
G0 F3600 X157.325 Y116.03
G1 F1800 X143.522 Y102.227 E41.35674
G1 X143.494 Y102.199
G0 F3600 X143.148 Y102.419
G1 F1800 X156.759 Y116.03 E42.50913
G1 X156.787 Y116.058
G0 F3600 X156.194 Y116.03
G1 F1800 X142.774 Y102.61 E43.64536
G1 X142.746 Y102.582
G0 F3600 X142.42 Y102.822
G1 F1800 X155.628 Y116.03 E44.76363
G1 X155.656 Y116.058
G0 F3600 X155.062 Y116.03
G1 F1800 X142.077 Y103.045 E45.86303
G1 X142.049 Y103.017
G0 F3600 X141.734 Y103.267
G1 F1800 X154.497 Y116.03 E46.94363
G1 X154.525 Y116.058
G0 F3600 X153.931 Y116.03
G1 F1800 X141.39 Y103.49 E48.00539
G1 X141.362 Y103.462
G0 F3600 X141.075 Y103.74
G1 F1800 X153.365 Y116.03 E49.04594
G1 X153.393 Y116.058
G0 F3600 X152.8 Y116.03
G1 F1800 X140.763 Y103.993 E50.06507
G1 X140.735 Y103.965
G0 F3600 X140.449 Y104.245
G1 F1800 X152.234 Y116.03 E51.06286
G1 X152.262 Y116.058
G0 F3600 X151.668 Y116.03
G1 F1800 X140.137 Y104.499 E52.03915
G1 X140.109 Y104.471
G0 F3600 X139.855 Y104.782
G1 F1800 X151.103 Y116.03 E52.99148
G1 X151.131 Y116.058
G0 F3600 X150.537 Y116.03
G1 F1800 X139.572 Y105.066 E53.9198
G1 X139.544 Y105.038
G0 F3600 X139.29 Y105.349
G1 F1800 X149.971 Y116.03 E54.82413
G1 X149.999 Y116.058
G0 F3600 X149.406 Y116.03
G1 F1800 X139.014 Y105.638 E55.70398
G1 X138.986 Y105.61
G0 F3600 X138.761 Y105.951
G1 F1800 X148.84 Y116.03 E56.55734
G1 X148.868 Y116.058
G0 F3600 X148.274 Y116.03
G1 F1800 X138.508 Y106.264 E57.38419
G1 X138.48 Y106.236
G0 F3600 X138.254 Y106.576
G1 F1800 X147.708 Y116.03 E58.18462
G1 X147.736 Y116.058
G0 F3600 X147.143 Y116.03
G1 F1800 X138.014 Y106.901 E58.95755
G1 X137.986 Y106.873
G0 F3600 X137.791 Y107.244
G1 F1800 X146.577 Y116.03 E59.70142
G1 X146.605 Y116.058
G0 F3600 X146.011 Y116.03
G1 F1800 X137.569 Y107.587 E60.41622
G1 X137.541 Y107.559
G0 F3600 X137.346 Y107.93
G1 F1800 X145.446 Y116.03 E61.10202
G1 X145.474 Y116.058
G0 F3600 X144.88 Y116.03
G1 F1800 X137.142 Y108.292 E61.75717
G1 X137.114 Y108.264
G0 F3600 X136.951 Y108.667
G1 F1800 X144.314 Y116.03 E62.38057
G1 X144.342 Y116.058
G0 F3600 X143.749 Y116.03
G1 F1800 X136.76 Y109.042 E62.97226
G1 X136.732 Y109.014
G0 F3600 X136.569 Y109.416
G1 F1800 X143.183 Y116.03 E63.53224
G1 X143.211 Y116.058
G0 F3600 X142.617 Y116.03
G1 F1800 X136.412 Y109.825 E64.0576
G1 X136.384 Y109.797
G0 F3600 X136.255 Y110.234
G1 F1800 X142.052 Y116.03 E64.54837
G1 X142.08 Y116.058
G0 F3600 X141.486 Y116.03
G1 F1800 X136.098 Y110.643 E65.00451
G1 X136.07 Y110.615
G0 F3600 X135.958 Y111.068
G1 F1800 X140.92 Y116.03 E65.42463
G1 X140.948 Y116.058
G0 F3600 X140.355 Y116.03
G1 F1800 X135.838 Y111.513 E65.80706
G1 X135.81 Y111.485
G0 F3600 X135.718 Y111.959
G1 F1800 X139.789 Y116.03 E66.15174
G1 X139.817 Y116.058
G0 F3600 X139.223 Y116.03
G1 F1800 X135.604 Y112.411 E66.45815
G1 X135.576 Y112.383
G0 F3600 X135.526 Y112.899
G1 F1800 X138.657 Y116.03 E66.72324
G1 X138.685 Y116.058
G0 F3600 X138.092 Y116.03
G1 F1800 X135.449 Y113.388 E66.94697
G1 X135.421 Y113.36
G0 F3600 X135.372 Y113.876
G1 F1800 X137.526 Y116.03 E67.12934
G1 X137.554 Y116.058
G0 F3600 X136.96 Y116.03
G1 F1800 X135.345 Y114.414 E67.26612
G1 X135.317 Y114.386
G0 F3600 X135.318 Y114.953
G1 F1800 X136.395 Y116.03 E67.35731
G1 X136.423 Y116.058
G0 F3600 X135.829 Y116.03
G1 F1800 X135.299 Y115.5 E67.40218
G0 F3600 X150.514 Y100.733
G1 F1800 X164.677 Y114.897 E68.60135
G1 X164.705 Y114.925
G0 F3600 X164.646 Y114.3
G1 F1800 X151.11 Y100.764 E69.7474
G1 X151.082 Y100.736
G0 F3600 X151.728 Y100.816
G1 F1800 X164.593 Y113.681 E70.83663
G1 X164.621 Y113.709
G0 F3600 X164.487 Y113.01
M104 S185
G1 F1800 X152.399 Y100.921 E71.86012
G1 X152.371 Y100.893
G0 F3600 X153.071 Y101.028
G1 F1800 X164.381 Y112.338 E72.8177
G1 X164.409 Y112.366
G0 F3600 X164.172 Y111.563
G1 F1800 X153.845 Y101.237 E73.69201
G1 X153.817 Y101.209
G0 F3600 X154.636 Y101.462
G1 F1800 X163.948 Y110.773 E74.48038
G1 X163.976 Y110.801
G0 F3600 X163.596 Y109.856
G1 F1800 X155.553 Y101.813 E75.16136
G1 X155.525 Y101.785
G0 F3600 X156.595 Y102.289
G1 F1800 X163.12 Y108.814 E75.7138
G1 X163.148 Y108.842
G0 F3600 X162.371 Y107.5
G1 F1800 X157.907 Y103.036 E76.09176
G1 X157.879 Y103.008
G0 F3600 X157.753 Y103.197
G1 F600 E73.59176
G0 F3600 X138.32 Y116.191
G0 X138.32 Y117.076
G0 X138.32 Y117.111
;TIME_ELAPSED:49.525431
;LAYER:1
M140 S50
M106 S255
G0 F5400 X138.32 Y117.111 Z0.5
;TYPE:SUPPORT
G1 F1500 E76.09176
G1 F2700 X138.32 Y118.274 E76.13817
G0 F5400 X140.98 Y118.274
G1 F2700 X140.98 Y117.111 E76.18459
G0 F5400 X148.96 Y117.111
G1 F2700 X148.96 Y118.274 E76.23101
G0 F5400 X151.62 Y118.274
G1 F2700 X151.62 Y117.111 E76.27743
G0 F5400 X159.6 Y117.111
G1 F2700 X159.6 Y118.274 E76.32384
G0 F5400 X162.26 Y118.274
G1 F2700 X162.26 Y117.111 E76.37026
G1 F600 E73.87026
G0 F5400 X162.26 Y117.076
G0 X162.26 Y116.191
G0 X164.872 Y115.411
G0 X164.972 Y115.411
;TYPE:WALL-OUTER
G1 F1500 E76.37026
G1 F1800 X164.931 Y116.211 E76.40223
G1 X135.069 Y116.211 E77.59409
G1 X135.028 Y115.411 E77.62606
G1 X135.109 Y113.847 E77.68857
G1 X135.355 Y112.293 E77.75136
G1 X135.758 Y110.788 E77.81355
G1 X136.323 Y109.316 E77.87648
G1 X137.031 Y107.927 E77.9387
G1 X137.889 Y106.606 E78.00157
G1 X138.87 Y105.395 E78.06377
